X:238
T:Happy the Man Who Feareth God
%%stretchlast false
M:4/4
L:1/4
K:Bb clef=C1
"^i"[B,FB] [B,FB] "^V"[F,Acf] "^I"[B,Bdf] | [B,FBd] [B,Bdf] "^IV"[EBeg]/ "^IV¹"[GBeb]/ "^i"[Fcfb]/ "^V"[Fcfa]/ | "^I"[B,Bdb]2 "^i"[B,f] "^iv7"[Edeb] | "^vi¹"[B,Bdg] "^iv"[E,Bef] "^vi"[F,Bcg] "^v¹"[_A,_Acf]/ "^♯vi"[B,_ABf]/ | "^V"[F,ABe]/ "^iii¹"[F,FAd]/ "^i"[B,FBc] [B,FB] "^I"[B,FBd] | [B,d] "^i"[CBcf] "^vi7"[G,Bf]3/4 [G,ABf]/4 "^ii"[CGe]/ [CGce]/ | "^IVmaj7"[EGBd]/ "^vi²"[DGBd]/ "^ii"[CEc]/ [CEcg]/ "^vi7¹"[B,FGg]/4 [B,FAg]/4 "^i"[B,FBf]/ [B,FBe]/ "^V"[B,FAe]/ | [EBde]/ "^I"[B,Bdf] "^I²"[FBdf] "^ii7"[CBeg]/ "^iv"[Ddeb]/ "^iv7"[Edeb]/ | "^ii"[Fceb]/ "^vii"[Gcda]/ "^ii"[Cceg]/ "^viiø7"[A,ceg]/ "^I"[B,cdc']/ [CBdc']/4 [CAdc']/4 "^ii7"[CGcb]/ "^V"[F,GAc']/ | [F,FAc']/ [F,FAb]/4 [F,FAa]/4 [F,FAg]/ "^♯iv"[=Eg]/ "^v"[Ff]2 |]
